communes/557.svg

<?xml version="1.0" encoding="UTF-8" standalone="no"?>
<svg
   xmlns:dc="http://purl.org/dc/elements/1.1/"
   xmlns:cc="http://web.resource.org/cc/"
   xmlns:rdf="http://www.w3.org/1999/02/22-rdf-syntax-ns#"
   xmlns:svg="http://www.w3.org/2000/svg"
   xmlns="http://www.w3.org/2000/svg"
   xmlns:xlink="http://www.w3.org/1999/xlink"
   xmlns:sodipodi="http://sodipodi.sourceforge.net/DTD/sodipodi-0.dtd"
   xmlns:inkscape="http://www.inkscape.org/namespaces/inkscape"
   height="763"
   width="603"
   version="1.0"
   id="svg20"
   sodipodi:version="0.32"
   inkscape:version="0.44.1"
   sodipodi:docname="Zuzwil-aun está por subir.svg"
   sodipodi:docbase="F:\Mis Documentos\Mis imágenes\Encyclopédie\Escudos de Suiza">
  <metadata
     id="metadata31">
    <rdf:RDF>
      <cc:Work
         rdf:about="">
        <dc:format>image/svg+xml</dc:format>
        <dc:type
           rdf:resource="http://purl.org/dc/dcmitype/StillImage" />
        <dc:date>07-AUG-2006</dc:date>
        <dc:creator>
          <cc:Agent>
            <dc:title>Jérôme BLUM (wagner51)</dc:title>
          </cc:Agent>
        </dc:creator>
        <cc:license
           rdf:resource="http://creativecommons.org/licenses/GPL/2.0/" />
        <dc:coverage />
        <dc:description>Gabarit pour le Projet:Blasons de WIkipédia</dc:description>
        <dc:subject>
          <rdf:Bag>
            <rdf:li>blason suisse modèle gabarit projet blasons</rdf:li>
          </rdf:Bag>
        </dc:subject>
        <dc:language>fr</dc:language>
        <dc:title>Gabrit d'un blason suisse</dc:title>
      </cc:Work>
      <cc:License
         rdf:about="http://creativecommons.org/licenses/GPL/2.0/">
        <cc:permits
           rdf:resource="http://web.resource.org/cc/Reproduction" />
        <cc:permits
           rdf:resource="http://web.resource.org/cc/Distribution" />
        <cc:requires
           rdf:resource="http://web.resource.org/cc/Notice" />
        <cc:permits
           rdf:resource="http://web.resource.org/cc/DerivativeWorks" />
        <cc:requires
           rdf:resource="http://web.resource.org/cc/ShareAlike" />
        <cc:requires
           rdf:resource="http://web.resource.org/cc/SourceCode" />
      </cc:License>
    </rdf:RDF>
  </metadata>
  <defs
     id="defs29">
    <linearGradient
       id="linearGradient2893">
      <stop
         style="stop-color:#ffffff;stop-opacity:0.3137255;"
         offset="0"
         id="stop2895" />
      <stop
         id="stop2897"
         offset="0.19"
         style="stop-color:#ffffff;stop-opacity:0.25098041;" />
      <stop
         style="stop-color:#6b6b6b;stop-opacity:0.1254902;"
         offset="0.60000002"
         id="stop2901" />
      <stop
         style="stop-color:#000000;stop-opacity:0.1254902;"
         offset="1"
         id="stop2899" />
    </linearGradient>
    <linearGradient
       id="linearGradient2955">
      <stop
         style="stop-color:white;stop-opacity:0;"
         offset="0"
         id="stop2965" />
      <stop
         style="stop-color:black;stop-opacity:0.64583331;"
         offset="1"
         id="stop2959" />
    </linearGradient>
    <radialGradient
       inkscape:collect="always"
       xlink:href="#linearGradient2893"
       id="radialGradient3236"
       gradientUnits="userSpaceOnUse"
       gradientTransform="matrix(1.215027,1.531577e-24,1.464684e-23,1.266667,-839.1924,-490.4894)"
       cx="858.04236"
       cy="579.93323"
       fx="858.04236"
       fy="579.93323"
       r="300" />
  </defs>
  <sodipodi:namedview
     inkscape:window-height="682"
     inkscape:window-width="1024"
     inkscape:pageshadow="2"
     inkscape:pageopacity="0.0"
     guidetolerance="10.0"
     gridtolerance="10.0"
     objecttolerance="10.0"
     borderopacity="1.0"
     bordercolor="#666666"
     pagecolor="#ffffff"
     id="base"
     inkscape:zoom="0.44292453"
     inkscape:cx="301.57921"
     inkscape:cy="491.7431"
     inkscape:window-x="-4"
     inkscape:window-y="-4"
     inkscape:current-layer="layer2"
     showgrid="true"
     showguides="true"
     inkscape:guide-bbox="true" />
  <desc
     id="desc22">Coat of Arms of Canton of Freiburg (Fribourg)</desc>
  <g
     inkscape:groupmode="layer"
     id="layer1"
     inkscape:label="Fond écu"
     sodipodi:insensitive="true">
    <path
       id="path1899"
       d="M 1.5,1.49998 L 1.5,460.3679 C 1.5,626.6785 135.81456,761.5 301.49999,761.5 C 467.18543,761.5 601.5,626.6785 601.5,460.3679 L 601.5,1.49998 L 1.5,1.49998 z "
       style="fill:#fcef3c;fill-opacity:1" />
  </g>
  <g
     inkscape:groupmode="layer"
     id="layer2"
     inkscape:label="Meubles"
     sodipodi:insensitive="true">
    <g
       id="g7262"
       transform="matrix(1.114137,0,0,1.114137,-34.24136,-65.58204)">
      <path
         sodipodi:nodetypes="ccccc"
         id="path1921"
         d="M 207.25689,382.68772 L 392.74361,382.68772 L 391.91772,569.82625 C 388.81209,649.04481 211.30291,648.05821 208.90866,569.00032 L 207.25689,382.68772 z "
         style="fill:#2b5df2;fill-opacity:1;fill-rule:evenodd;stroke:black;stroke-width:3;stroke-linecap:butt;stroke-linejoin:miter;stroke-miterlimit:4;stroke-dasharray:none;stroke-opacity:1" />
      <path
         sodipodi:nodetypes="cccc"
         id="path2810"
         d="M 300.00023,438.55716 C 332.28885,458.97788 327.67176,601.35696 335.36803,688.57031 L 268.19751,688.25699 C 271.76444,602.17621 275.14656,461.71198 300.00023,438.55716 z "
         style="fill:#2b5df2;fill-opacity:1;fill-rule:evenodd;stroke:black;stroke-width:3;stroke-linecap:butt;stroke-linejoin:miter;stroke-miterlimit:4;stroke-dasharray:none;stroke-opacity:1" />
      <path
         transform="matrix(5.974257,0,0,6.615138,-3725.617,-4244.567)"
         d="M 679.81342 745.61578 A 5.6727366 3.4768386 0 1 1  668.46795,745.61578 A 5.6727366 3.4768386 0 1 1  679.81342 745.61578 z"
         sodipodi:ry="3.4768386"
         sodipodi:rx="5.6727366"
         sodipodi:cy="745.61578"
         sodipodi:cx="674.14069"
         id="path3697"
         style="fill:#2b5df2;fill-opacity:1;fill-rule:evenodd;stroke:black;stroke-width:0.47721034;stroke-miterlimit:4;stroke-dasharray:none;stroke-opacity:1"
         sodipodi:type="arc" />
    </g>
    <g
       transform="matrix(1.114137,0,0,1.114137,-199.2414,-385.582)"
       id="g7283">
      <path
         style="fill:#2b5df2;fill-opacity:1;fill-rule:evenodd;stroke:black;stroke-width:3;stroke-linecap:butt;stroke-linejoin:miter;stroke-miterlimit:4;stroke-dasharray:none;stroke-opacity:1"
         d="M 207.25689,382.68772 L 392.74361,382.68772 L 391.91772,569.82625 C 388.81209,649.04481 211.30291,648.05821 208.90866,569.00032 L 207.25689,382.68772 z "
         id="path7285"
         sodipodi:nodetypes="ccccc" />
      <path
         style="fill:#2b5df2;fill-opacity:1;fill-rule:evenodd;stroke:black;stroke-width:3;stroke-linecap:butt;stroke-linejoin:miter;stroke-miterlimit:4;stroke-dasharray:none;stroke-opacity:1"
         d="M 300.00023,438.55716 C 332.28885,458.97788 327.67176,601.35696 335.36803,688.57031 L 268.19751,688.25699 C 271.76444,602.17621 275.14656,461.71198 300.00023,438.55716 z "
         id="path7287"
         sodipodi:nodetypes="cccc" />
      <path
         sodipodi:type="arc"
         style="fill:#2b5df2;fill-opacity:1;fill-rule:evenodd;stroke:black;stroke-width:0.47721034;stroke-miterlimit:4;stroke-dasharray:none;stroke-opacity:1"
         id="path7289"
         sodipodi:cx="674.14069"
         sodipodi:cy="745.61578"
         sodipodi:rx="5.6727366"
         sodipodi:ry="3.4768386"
         d="M 679.81342 745.61578 A 5.6727366 3.4768386 0 1 1  668.46795,745.61578 A 5.6727366 3.4768386 0 1 1  679.81342 745.61578 z"
         transform="matrix(5.974257,0,0,6.615138,-3725.617,-4244.567)" />
    </g>
    <g
       id="g7291"
       transform="matrix(1.114137,0,0,1.114137,120.7586,-385.582)">
      <path
         sodipodi:nodetypes="ccccc"
         id="path7293"
         d="M 207.25689,382.68772 L 392.74361,382.68772 L 391.91772,569.82625 C 388.81209,649.04481 211.30291,648.05821 208.90866,569.00032 L 207.25689,382.68772 z "
         style="fill:#2b5df2;fill-opacity:1;fill-rule:evenodd;stroke:black;stroke-width:3;stroke-linecap:butt;stroke-linejoin:miter;stroke-miterlimit:4;stroke-dasharray:none;stroke-opacity:1" />
      <path
         sodipodi:nodetypes="cccc"
         id="path7295"
         d="M 300.00023,438.55716 C 332.28885,458.97788 327.67176,601.35696 335.36803,688.57031 L 268.19751,688.25699 C 271.76444,602.17621 275.14656,461.71198 300.00023,438.55716 z "
         style="fill:#2b5df2;fill-opacity:1;fill-rule:evenodd;stroke:black;stroke-width:3;stroke-linecap:butt;stroke-linejoin:miter;stroke-miterlimit:4;stroke-dasharray:none;stroke-opacity:1" />
      <path
         transform="matrix(5.974257,0,0,6.615138,-3725.617,-4244.567)"
         d="M 679.81342 745.61578 A 5.6727366 3.4768386 0 1 1  668.46795,745.61578 A 5.6727366 3.4768386 0 1 1  679.81342 745.61578 z"
         sodipodi:ry="3.4768386"
         sodipodi:rx="5.6727366"
         sodipodi:cy="745.61578"
         sodipodi:cx="674.14069"
         id="path7297"
         style="fill:#2b5df2;fill-opacity:1;fill-rule:evenodd;stroke:black;stroke-width:0.47721034;stroke-miterlimit:4;stroke-dasharray:none;stroke-opacity:1"
         sodipodi:type="arc" />
    </g>
  </g>
  <g
     inkscape:groupmode="layer"
     id="layer3"
     inkscape:label="Reflet final"
     style="display:inline"
     sodipodi:insensitive="true">
    <path
       style="fill:url(#radialGradient3236);fill-opacity:1"
       d="M 1.5,1.5 L 1.5,460.3679 C 1.5,626.67854 135.81454,761.5 301.49993,761.5 C 467.1854,761.5 601.5,626.67854 601.5,460.3679 L 601.5,1.5 L 1.5,1.5 z "
       id="path2346" />
  </g>
  <g
     inkscape:groupmode="layer"
     id="layer4"
     inkscape:label="Contour final"
     style="display:inline"
     sodipodi:insensitive="true">
    <path
       style="fill:none;fill-opacity:1;stroke:#000000;stroke-width:3;stroke-miterlimit:4;stroke-dasharray:none;stroke-opacity:1"
       d="M 1.5,1.5 L 1.5,460.36794 C 1.5,626.67854 135.81454,761.5 301.49993,761.5 C 467.1854,761.5 601.5,626.67854 601.5,460.36794 L 601.5,1.5 L 1.5,1.5 z "
       id="path3239" />
  </g>
</svg>

<?xml version="1.0" encoding="UTF-8"?>
<svg version="1.0" viewBox="0 0 603 763" xmlns="http://www.w3.org/2000/svg" xmlns:cc="http://web.resource.org/cc/" xmlns:dc="http://purl.org/dc/elements/1.1/" xmlns:rdf="http://www.w3.org/1999/02/22-rdf-syntax-ns#" xmlns:xlink="http://www.w3.org/1999/xlink">
<metadata>
<rdf:RDF>
<cc:Work rdf:about="">
<dc:format>image/svg+xml</dc:format>
<dc:type rdf:resource="http://purl.org/dc/dcmitype/StillImage"/>
<dc:date>07-AUG-2006</dc:date>
<dc:creator>
<cc:Agent>
<dc:title>Jérôme BLUM (wagner51)</dc:title>
</cc:Agent>
</dc:creator>
<cc:license rdf:resource="http://creativecommons.org/licenses/GPL/2.0/"/>
<dc:coverage/>
<dc:description>Gabarit pour le Projet:Blasons de WIkipédia</dc:description>
<dc:subject>
<rdf:Bag>
<rdf:li>blason suisse modèle gabarit projet blasons</rdf:li>
</rdf:Bag>
</dc:subject>
<dc:language>fr</dc:language>
<dc:title>Gabrit d'un blason suisse</dc:title>
</cc:Work>
<cc:License rdf:about="http://creativecommons.org/licenses/GPL/2.0/">
<cc:permits rdf:resource="http://web.resource.org/cc/Reproduction"/>
<cc:permits rdf:resource="http://web.resource.org/cc/Distribution"/>
<cc:requires rdf:resource="http://web.resource.org/cc/Notice"/>
<cc:permits rdf:resource="http://web.resource.org/cc/DerivativeWorks"/>
<cc:requires rdf:resource="http://web.resource.org/cc/ShareAlike"/>
<cc:requires rdf:resource="http://web.resource.org/cc/SourceCode"/>
</cc:License>
</rdf:RDF>
</metadata>
<defs>
<radialGradient id="a" cx="858.04" cy="579.93" r="300" gradientTransform="matrix(1.215 1.5316e-24 1.4647e-23 1.2667 -839.19 -490.49)" gradientUnits="userSpaceOnUse">
<stop stop-color="#fff" stop-opacity=".31373" offset="0"/>
<stop stop-color="#fff" stop-opacity=".25098" offset=".19"/>
<stop stop-color="#6b6b6b" stop-opacity=".12549" offset=".6"/>
<stop stop-opacity=".12549" offset="1"/>
</radialGradient>
</defs>
<desc>Coat of Arms of Canton of Freiburg (Fribourg)</desc>
<path d="m1.5 1.5v458.87c0 166.31 134.31 301.13 300 301.13 165.69 0 300-134.82 300-301.13v-458.87h-600z" fill="#fcef3c"/>
<g fill="#2b5df2" fill-rule="evenodd" stroke="#000">
<g transform="matrix(1.1141 0 0 1.1141 -34.241 -65.582)">
<path d="m207.26 382.69h185.49l-0.82589 187.14c-3.1056 79.219-180.61 78.232-183.01-0.82593l-1.6518-186.31z" stroke-width="3"/>
<path d="m300 438.56c32.289 20.421 27.672 162.8 35.368 250.01l-67.171-0.31332c3.5669-86.081 6.949-226.55 31.803-249.7z" stroke-width="3"/>
<path transform="matrix(5.9743 0 0 6.6151 -3725.6 -4244.6)" d="m679.81 745.62a5.6727 3.4768 0 1 1-11.345 0 5.6727 3.4768 0 1 1 11.345 0z" stroke-width=".47721"/>
</g>
<g transform="matrix(1.1141 0 0 1.1141 -199.24 -385.58)">
<path d="m207.26 382.69h185.49l-0.82589 187.14c-3.1056 79.219-180.61 78.232-183.01-0.82593l-1.6518-186.31z" stroke-width="3"/>
<path d="m300 438.56c32.289 20.421 27.672 162.8 35.368 250.01l-67.171-0.31332c3.5669-86.081 6.949-226.55 31.803-249.7z" stroke-width="3"/>
<path transform="matrix(5.9743 0 0 6.6151 -3725.6 -4244.6)" d="m679.81 745.62a5.6727 3.4768 0 1 1-11.345 0 5.6727 3.4768 0 1 1 11.345 0z" stroke-width=".47721"/>
</g>
<g transform="matrix(1.1141 0 0 1.1141 120.76 -385.58)">
<path d="m207.26 382.69h185.49l-0.82589 187.14c-3.1056 79.219-180.61 78.232-183.01-0.82593l-1.6518-186.31z" stroke-width="3"/>
<path d="m300 438.56c32.289 20.421 27.672 162.8 35.368 250.01l-67.171-0.31332c3.5669-86.081 6.949-226.55 31.803-249.7z" stroke-width="3"/>
<path transform="matrix(5.9743 0 0 6.6151 -3725.6 -4244.6)" d="m679.81 745.62a5.6727 3.4768 0 1 1-11.345 0 5.6727 3.4768 0 1 1 11.345 0z" stroke-width=".47721"/>
</g>
</g>
<g>
<path d="m1.5 1.5v458.87c0 166.31 134.31 301.13 300 301.13 165.69 0 300-134.82 300-301.13v-458.87h-600z" fill="url(#a)"/>
<path d="m1.5 1.5v458.87c0 166.31 134.31 301.13 300 301.13 165.69 0 300-134.82 300-301.13v-458.87h-600z" fill="none" stroke="#000" stroke-width="3"/>
</g>
</svg>
